src/16/devices/knemo-monitor-error.svg

<svg xmlns="http://www.w3.org/2000/svg" width="16" height="16" viewBox="0 0 16 16">
 <defs>
  <style id="current-color-scheme" type="text/css">
   .ColorScheme-Text { color:#727272; } .ColorScheme-Highlight { color:#5294e2; }
  </style>
 </defs>
 <path style="fill:currentColor" class="ColorScheme-Highlight" d="M 10 -0.00390625 C 10.004 -0.00090625 10 1.3293938 10 1.9960938 L 7 1.9960938 L 7 6.9960938 L 10 6.9960938 L 10 8.9960938 L 15.5 4.4960938 L 10 -0.00390625 z M 6 5.9960938 L 0.5 10.496094 L 6 14.996094 C 5.996 14.993094 6 13.662794 6 12.996094 L 9 12.996094 L 9 7.9960938 L 6 7.9960938 L 6 5.9960938 z"/>
</svg>

<svg xmlns="http://www.w3.org/2000/svg" width="16" height="16"><defs><style id="current-color-scheme" type="text/css"></style></defs><path d="M10-.004c.004.003 0 1.333 0 2H7v5h3v2l5.5-4.5-5.5-4.5zm-4 6l-5.5 4.5 5.5 4.5c-.004-.003 0-1.333 0-2h3v-5H6v-2z" fill="currentColor" color="#5294e2"/></svg>
